!!!COM: Robert Franz
!!!CNT: Deutscher
!!!TXO: Deutsche 
!!!OTL: Fur Einen
!!!OPS: Op. 1
!!!ONM: No. 8
!!!ONB: Original key: a minor
!!!LYR: After Burns
!!!ENC: Brian Bice
!!!YOR: Vocal Album, G. Schirmer, Inc., 1907
!!!ODT: 1843/
!!NB: Vocal melody and text only encoded.
**kern	**silbe
*clefG2	*
*k[b-e-]	*
*M6/8	*
=0	=0
4.r	.
4r	.
{8d	{Mein
=1	=1
4g	Herz
8a	ist
4b-;}	schwer,}
{8b-	{Gott
=2	=2
(4.a	sei
8cc)	|
8b-	es
8a	ge-
=3	=3
4g}	-klagt!}
8r	.
4r	.
{8g	{Mein
=4	=4
4b-	Herz
8b-	ist
4a	schwer
8g	fu2r
=5	=5
(4cc	Ei-
8a)	|
4a}	-nen,}
8r	.
=6	=6
4r	.
8r	.
4r	.
{8a	{o
=7	=7
4a	Gott,
16a	ei-
16a	-ne
4b-	lan-
8b-	-ge
=8	=8
4cc	Win-
8cc	-ter-
4cc}	-nacht}
{8cc	{ko2nnt'
=9	=9
(8ee-	wa-
8dd)	|
8cc	-chen
(8b-	ich
8a)	|
8g	fu2r
=10	=10
(4f	Ei-
8g)	|
4f}	-nen}
8r	.
=11	=11
4r	.
8r	.
4r	.
{8d	{fu2r
=12	=12
4.e-	Ei-
4d;}	-nen!}
{8d	{O
=13	=13
[4.dd	Leid
4dd]	|
8cc	fu2r
=14	=14
(4b-	Ei-
8dd)	|
4dd;}	-nen!}
{8b-	{O
=15	=15
[4.b-	Freud'
4b-]	|
8a-	fu2r
=16	=16
4g	Ei-
8b-	|
4b-;}	-nen!}
{8g	{Die
=17	=17
4cc	gan-
8b-	-ze
4a	Welt
8g	ko2nnt'
=18	=18
4f	ich
8g	durch-
4a	-zieh'n
8b-	fu2r
=19	=19
[4.dd	Ei-
4dd]	|
8cc	|
=20	=20
4b-}	-nen!}
8r	.
4r	.
{8d	{fu2r
=21	=21
4.e-	Ei-
4.g	|
=22	=22
4f}	-nen!}
8r	.
4r	.
8r	.
=24	=24
4r	.
8r	.
4r	.
{8f	{Ihr
=25	=25
4.b-	Ma2ch-
4f	-te,
8r	.
=26	=26
(4.g	rei-
8.d)	|
8.e-	-ner
=27	=27
[4.f	Lie-
4f]	|
8g	-be
=28	=28
4f}	hold,}
8r	.
4r	.
{8b-	{o
=29	=29
(8dd	la2-
8cc)	|
8b-	-chelt
(8cc	mild
8b-)	|
8a	auf
=30	=30
(4.g	Ei-
4b-)	|
8a	|
=31	=31
4a}	-nen!}
8r	.
4r	.
8r	.
=33	=33
{4a	{Schu2tzt
16a	vor
16a	Ge-
8.b-	-fahr
8.b-}	ihn!}
=34	=34
4r	.
{16cc	{bringt
16dd	ge-
4ee-	-sund
8ee-	zu-
=35	=35
4dd	-ru2ck
8cc	mir
(8b-	mei-
8a)	|
8g	-nen
=36	=36
(4f	Ei-
8g)	|
4f}	-nen,}
8r	.
=37	=37
4r	.
8r	.
4r	.
{16d	{mei-
16d	-nen
=38	=38
4.e-	Ei-
4d;}	-nen!}
{8dd	{O
=39	=39
[4.dd	Leid
4dd]	|
8cc	fu2r
=40	=40
(4b-	Ei-
8dd)	|
4dd}	-nen!}
{8b-	{O
=41	=41
[4.b-	Freud'
4b-]	|
8a-	fu2r
=42	=42
(4g	Ei-
8b-)	|
4b-}	-nen!}
8r	.
=43	=43
4r	.
{8g	{Ich
[4.cc	tha2t',
=44	=44
4cc]}	|}
8r	.
{8b-	{o
8an	Gott,
8g	was
=45	=45
4f	tha2t'
8g	ich
4a	nicht
8b-	fu2r
=46	=46
[4.dd	Ei-
4dd]	|
8cc	|
=47	=47
4b-}	-nen,}
8r	.
4r	.
{8d	{fu2r
=48	=48
(4.e-	Ei-
4.g)	|
=49	=49
4f}	-nen!}
8r	.
4r	.
8r	.
*-	*-
